X:1
T:Temp'è da'ncominciar
T:Temp'è da'ncominciar
T:Girolamo Scotto
T:Source : Madrigali a tre voci---Venetia---G.Scotto---1541. Editor : André Vierendeels (09/06/16)
T:Notes : Original clefs : C2, C3, F3 Editorial accidentals above the staff Original note values have been halved "Quinti toni" 
T:©
T:©
T:©
T:©
T:©
C:Girolamo Scotto
Z:©
%%score [ 1 2 3 ]
L:1/8
Q:1/4=96
M:2/2
K:F
V:1 treble nm="Alto" snm="A"
V:2 treble-8 nm="Tenor" snm="T"
V:3 bass nm="Bass" snm="B"
V:1
 C4 C2 C2 | F2 F2 E3 F | G2 D2 D2 D2 | F4 E2 A2- | A2 G4 F2- | F2 E2 F2 A2 | A2 A2 G2 G2 | A6 A2 | %8
w: Temp' è da'|nco- min- ciar _|_ quel pian- to'ho-|mai, quel pian-|* to'ho- ma-|* * i, ch'in-|co- min- cia- to'ha-|vrei piu|
 F3 G A2 B2- | BA A4 G2 | A8 | z2 F2 F2 F2 | E2 G3 F F2- | F2 E2 F3 E | D4 F2 F2- | FE/D/ E2 FEDC | %16
w: gior- * * ni|_ a- die- *|tro,|se quel- la|bel- la _ Don-||* na, [se|_ _ _ quel- la _ _ _|
 DC C4 B,2 | C2 E2 E2 E2 | F2 F3 E/D/ E2 | F3 E/D/ C4 | D3 E F3 G | A8 | z2 A2 A2 A2 | B2 B2 A4 | %24
w: bel la Don- *|na] ond' io m'im-|pe- tro, _ _ _|_ _ _ _|||non rom- pe-|va'il ca- mi-|
 G4 A2 G2 | F4 E4 | z2 F2 F2 E2 |"^#" F3 E D2 G2- | G2 F2 G4 | z2 A2 A2 A2 | D4 E4 | z8 | z8 | z8 | %34
w: no'a i no-|stri guai,|con le fol-|li spe- ran- *|* * ze:|A- mor tu'l|sa- i,||||
 z2 G2 G2 G2 | F2 F2 E3 F | G2 A2 D2 G2- | GF F4 ED | E4 F2 D2- | DC C2 D2 A2- | A2 G3 F F2- | %41
w: por- gi- mi|dun- que a- *|* * * i-||* ta, por-|* * ga- mi dun-|* que a- i-|
 F2 E2 F4- | F8 |] %43
w: * * ta.|_|
V:2
 A4 A2 A2 | A2 A2 c2 G2 | G2 G2 B4 | A3 B c3 B | A2 c3 B A2 | G4 A2 f2 | f2 f2 d2 e2 | %7
w: Temp' è da'|nco- min- ciar quel|pian- to'ho- ma-|i, quel pian- *|* to'ho- * ma-|* i, ch'in-|co- min- cia- to'ha-|
 f2 c2 c2 c2 | d4 c2 d2 | A2 c2 B4 | A3 G AB c2 | G2 c3 B/A/ B2 | c3 B A2 B2 | G4 F2 B2 | %14
w: vrei piu gior- ni'a-|die- * tro,|ch'in- co- min-|cia- * * * *|to'ha- vrei- * * *|piu _ gior- ni'a-|die- tro, se|
 B2 B2 A2 B2 | G4 A4 | z8 | G4 c3 B | A2 B2 G4 | F2 A2 A2 A2 | B2 B2 A2 d2- | dc c3 B/A/ B2 | %22
w: quel- la bel- la|Don- na,||ond' io _|_ m'im- pe-|tro, non rom- pe-|va'il ca- mi- *||
 c6 d2 | d2 d2 c2 AB | cd e2 f2 e2- | ed d4 c2 | d4 z2 c2 | c2 d2 B2 B2 | A4 G4 | z2 c2 c2 c2 | %30
w: * no'a|i no- stri gua- *|||i, con|le fol- li spe-|ran- ze:|A- mor tu'il|
 B4 G2 c2 | c2 c2 B2 B2 | A3 B c2 d2- | dc c4 B2 | c2 _e2 e2 e2 | d2 d2 c4 | B2 A2 B2 B2 | %37
w: sa- i, por-|gi- mi dun- que|a- * * i-||ta, por- gi- mi|dun- que'a- i-|ta, por- ge- mi|
 A2 A2 G4- | G4 F4 | G4 A3 B | c2 G2 A2 B2 | G4 F4- | F8 |] %43
w: dun- que'a- i-|* ta,|por- ge- *|mi dun- que a-|i- ta.|_|
V:3
 F,4 F,2 F,2 | D,2 D,2 C,3 D, | E,F, G,4 D,2 | D,2 D,2 A,2 F,2- | F,2 E,2 F,4 | C,4 F,2 D,2 | %6
w: Temp' è da'|nco- min- ciar _|_ _ _ quel|pian- to'ho- ma- *|* * i,|ch'in- co- min-|
 D,2 D,2 G,2 G,2 | F,6 F,2 | B,4 A,2 G,2 | F,4 G,4 | D,2 F,2 F,2 F,2 | E,2 F,2 D,4 | C,4 D,2 B,,2 | %13
w: cia- to'ha- vrei piu|gior- ni'a-|die- tro, ch'in-|co- min-|cia- to'ha- vrei piu|gior- ni'a- die-||
 C,4 z4 | G,4 F,2 B,,2 | C,4 F,4- | F,2 _E,2 D,4 | C,6 C,2 | D,2 B,,2 C,4 | F,8 | z2 D,2 D,2 D,2 | %21
w: tro,|se quel- la|bel- la|_ Don- na,|ond' io|m'im- pe- *|tro,|non rom- pe|
 F,2 F,2 D,2 D,2 | C,2 F,3 E,D,C, | B,,4 F,4 | C,4 z4 | z2 D,2 A,2 A,2 | B,2 B,2 A,3 G, | %27
w: va'il ca- mi- no'a|no- stri _ _ _|_ gua-|i,|con le fol-|li spe- ran- *|
 F,2 D,2 G,4 | D,4 G,4 | z2 F,2 F,2 F,2 | G,4 C,3 D, | E,2 F,2 G,2 D,2- | D,E, F,4 D,2 | %33
w: |* ze:|A- mor tu'il|sa- i, _|_ _ _ _|* * * A-|
 E,2 F,2 D,4 | C,8 | z2 D,2 A,2 A,2 | G,2 F,2 G,4 | D,4 z2 C,2 | C,2 C,2 D,2 D,2 | _E,4 D,2 D,2 | %40
w: mor tu'il sa-|i,|por- ge- mi|dun- que'a- i-|ta, por-|ge- mi dun- que'a-|i- ta, por-|
"^b" C,2 E,2 F,2 B,,2 | C,4 F,4- | F,8 |] %43
w: ge- mi dun- que'a-|i- ta.|_|

